packages/sources/icons/src/vitamix/suitcase-fill.svg

<svg width="16" height="16" viewBox="0 0 16 16" fill="none" xmlns="http://www.w3.org/2000/svg">
<path fill-rule="evenodd" clip-rule="evenodd" d="M10.6667 2.66667C10.6667 2.29867 10.368 2 10 2H6C5.632 2 5.33333 2.29867 5.33333 2.66667V4H1.99999C1.63199 4 1.33333 4.29867 1.33333 4.66667V13.3333C1.33333 13.7013 1.63199 14 1.99999 14H14C14.368 14 14.6667 13.7013 14.6667 13.3333V4.66667C14.6667 4.29867 14.368 4 14 4H10.6667V2.66667ZM3.99999 5.33333H5.33333V12.6667H3.99999V5.33333ZM12 5.33333H10.6667V12.6667H12V5.33333ZM6.66666 3.33333H9.33333V4H6.66666V3.33333Z" fill="#001018"/>
</svg>

<svg width="16" height="16" fill="none" xmlns="http://www.w3.org/2000/svg"><path fill-rule="evenodd" clip-rule="evenodd" d="M10.667 2.667A.667.667 0 0 0 10 2H6a.667.667 0 0 0-.667.667V4H2a.667.667 0 0 0-.667.667v8.666c0 .368.299.667.667.667h12a.667.667 0 0 0 .667-.667V4.667A.667.667 0 0 0 14 4h-3.333V2.667zM4 5.333h1.333v7.334H4V5.333zm8 0h-1.333v7.334H12V5.333zm-5.333-2h2.666V4H6.667v-.667z" fill="#001018"/></svg>
